X:1
T:Anima mia dolente
T:Giovanni Animuccia
T:Source : Secondo libro delle Laude spirituali a tre et a quattro voci---Roma---A.Gardano---1583. Editor : André Vierendeels (26/11/17). Notes : Original clefs : G2, C1, C3 Editorial accidentals above the staff Music compiled by Francisco Soto de Langa
T:Anima mia dolente
T:©
T:©
C:Giovanni Animuccia
Z:©
%%score [ 1 2 3 ]
L:1/8
Q:1/4=120
M:4/4
K:F
V:1 treble nm="Soprano 1" snm="S 1"
V:2 treble nm="Soprano 2" snm="S 2"
V:3 treble-8 nm="Tenor" snm="T"
V:1
"^1)" z4 d4 | d6 d2 | _e2 d2 c4 | d2 f2 f3 f | f2 f2 g4 | ^f8 :: z2 d2 c3 c | d2 e2 f4 | %8
w: A-|ni- ma|mia do- len-|te, che non hai|ca- ri- ta-|de,|chi sia, che|ti so- sten-|
w: Deh|quan- ti|ser- vi'et quan-|ti, hà'il tuo Pa-|dre'in go- ver-|no,|che di pa-|ne'A- bon- dan-|
 f2 B2 B2 c2 | d2 c2 c4 | =B4 f4 | d4 _e2 d2- | d2 B2 c4 | d4 c2 cc | f2 e2 d4 | c4 G2 GG | %16
w: ti, in si gran|po- ver- ta-|de, Gie-|su, ch'è pan|_ di vi-|ta, fatt' ha da|me par- ti-|ta, fatt' ha da|
w: ti, vi- von la|sta- tel' ver-|no, e|tu pur l'oc-|* chio tor-|ci, a- si- li-|que di por-|ci, a- si- li-|
 c2 B2 A4 | G8 :| %18
w: me par- ti-|ta.|
w: que di por-|ci.|
V:2
"^2)""^1)" z4 B4 | A6 B2 | G2 B4 A2 | B2 A2 A3 A | d2 d2 B2 c2 | d8 :: z2 B2 A3 G | A2 c2 d4 | %8
w: A-|ni- ma|mia do- len-|te, che non hai|ca- ri- ta- *|de,|chi sia, che|ti so- sten-|
w: Qual'|e- gli'hau-|ria mar- to-|ro, s'hor ti veds-|si in vi- *|so,|do- v'è la|ve- ste d'o-|
 d2 G2 F2 E2 | F2 E2 E3 F | G4 A4 | B4 G2 B2- | B2 G2 G4 | B4 A2 AG | A2 A2 B4 | A4 E2 ED | %16
w: ti, in si gran|po- ver- ta- *|de, Gie-|su, ch'è pan|_ di vi-|ta, fatt' ha da|me par- ti-|ta, fatt' ha da|
w: ro, tes- su- ta'in|pa- ra- di- *|so, dou|è'il can- di-|* do man-|to, che gli co-|sto co- tan-|to, che gli co-|
 E2 G4 ^F2 | G8 :| %18
w: me par- ti-|ta.|
w: sto co- tan-|to.|
V:3
"^3)""^1)""^4)" g8 | f6 g2 | _e2 B2 f4 | B2 d2 d3 d | d2 d2 _e4 | d8 ::"^-natural" z2 B2 f3 e | %7
w: A-|ni- ma|mia do- len-|te, che non hai|ca- ri- ta-|de,|chi sia, che|
w: Ahi|ch'in la-|ce- ra ve-|ste, e gra sie-|de'& cat- ti-|va,|chh na la|
 d2 c2 B4 | B2 _e2 d2 c2 | B2 c2 A4 | G4 d4 | B4 c2 B2- | B2 _e2 c4 | B4 f2 fe | d2 c2 B4 | %15
w: ti so- sten-|ti, in si gran|po- ver- ta-|de, Gie-|su, ch'è pan|_ di vi-|ta, fatt' ha da|me par- ti-|
w: fron- te me-|sta, d'o- gni bal-|dan- za pri-|va, piu|do- lo- ro-|* sa sor-|te, gia non puo|dat la mor-|
 F4 c2 cB | A2 G2 d4 | G8 :| %18
w: ta, fatt' ha da|me par- ti-|ta.|
w: te, gia non puo|dat la mor-|te.|

